img/manaSymbols/wanted/wantedu.svg

﻿<?xml version="1.0" encoding="utf-8"?>
<svg width="714" height="714" viewBox="0 0 714 714" version="1.1" xml:space="preserve" style="fill-rule: evenodd; clip-rule: evenodd; stroke-linejoin: round; stroke-miterlimit: 2;" id="svg2" sodipodi:docname="wantedu.svg" inkscape:version="1.3.2 (091e20e, 2023-11-25, custom)" xmlns:inkscape="http://www.inkscape.org/namespaces/inkscape" xmlns:sodipodi="http://sodipodi.sourceforge.net/DTD/sodipodi-0.dtd" xmlns="http://www.w3.org/2000/svg">
  <sodipodi:namedview id="namedview2" pagecolor="#ffffff" bordercolor="#000000" borderopacity="0.25" inkscape:showpageshadow="2" inkscape:pageopacity="0.0" inkscape:pagecheckerboard="0" inkscape:deskcolor="#d1d1d1" inkscape:zoom="1.1386555" inkscape:cx="357" inkscape:cy="357" inkscape:window-width="3440" inkscape:window-height="1369" inkscape:window-x="1912" inkscape:window-y="482" inkscape:window-maximized="1" inkscape:current-layer="g2" />
  <g transform="matrix(1,0,0,1,57,57)" id="g1">
    <circle cx="300" cy="300" r="300" style="fill: rgb(214, 183, 147); fill-opacity: 1;" id="circle1" />
    <path d="M300-57C102.966-57-57 102.966-57 300s159.966 357 357 357 357-159.966 357-357S497.034-57 300-57zm0 57c165.575 0 300 134.425 300 300S465.575 600 300 600 0 465.575 0 300 134.425 0 300 0z" style="fill: rgb(89, 76, 66); fill-opacity: 1;" id="path1" />
  </g>
  <g transform="matrix(1,0,0,1,-85.01,183.79)" id="g2">
    <path d="M546.93 375.53c-28.722 29.23-64.1 43.842-106.13 43.842-47.17 0-84.59-16.14-112.27-48.44-26.15-30.762-39.22-69.972-39.22-117.64 0-51.26 22.302-109.72 66.9-175.34 36.38-53.814 79.19-100.98 128.41-141.48-7.182 32.814-10.758 56.13-10.758 69.972 0 31.794 9.984 62.802 29.976 93.05 24.612 35.88 43.31 62.56 56.14 79.968 19.992 30.26 29.988 59.73 29.988 88.42 0 42.558-14.346 78.44-43.04 107.65m-.774-164.17c-7.686-17.17-16.662-28.572-26.916-34.22 1.536 3.084 2.31 7.44 2.31 13.08 0 10.77-3.072 26.14-9.234 46.13l-9.984 30.762c0 17.94 8.952 26.916 26.904 26.916 18.96 0 28.452-12.57 28.452-37.686 0-12.804-3.84-27.792-11.532-44.988" style="fill: rgb(3, 84, 122); fill-rule: nonzero; fill-opacity: 1;" id="path2" />
  </g>
</svg>

<?xml version="1.0" encoding="UTF-8" standalone="no"?>
<svg
   width="714"
   height="714"
   viewBox="0 0 714 714"
   version="1.1"
   xml:space="preserve"
   style="fill-rule:evenodd;clip-rule:evenodd;stroke-linejoin:round;stroke-miterlimit:2;"
   id="svg2"
   sodipodi:docname="wantedu.svg"
   inkscape:version="1.3.2 (091e20e, 2023-11-25, custom)"
   xmlns:inkscape="http://www.inkscape.org/namespaces/inkscape"
   xmlns:sodipodi="http://sodipodi.sourceforge.net/DTD/sodipodi-0.dtd"
   xmlns="http://www.w3.org/2000/svg"
   xmlns:svg="http://www.w3.org/2000/svg"><defs
   id="defs2" /><sodipodi:namedview
   id="namedview2"
   pagecolor="#ffffff"
   bordercolor="#000000"
   borderopacity="0.25"
   inkscape:showpageshadow="2"
   inkscape:pageopacity="0.0"
   inkscape:pagecheckerboard="0"
   inkscape:deskcolor="#d1d1d1"
   inkscape:zoom="1.1386555"
   inkscape:cx="357"
   inkscape:cy="357"
   inkscape:window-width="3440"
   inkscape:window-height="1369"
   inkscape:window-x="1912"
   inkscape:window-y="482"
   inkscape:window-maximized="1"
   inkscape:current-layer="g2" />
    <g
   transform="matrix(1,0,0,1,57,57)"
   id="g1">
        <circle
   cx="300"
   cy="300"
   r="300"
   style="fill:#d6b793;fill-opacity:1"
   id="circle1" />
        <path
   d="M300,-57C102.966,-57 -57,102.966 -57,300C-57,497.034 102.966,657 300,657C497.034,657 657,497.034 657,300C657,102.966 497.034,-57 300,-57ZM300,0C465.575,0 600,134.425 600,300C600,465.575 465.575,600 300,600C134.425,600 0,465.575 0,300C0,134.425 134.425,0 300,0Z"
   style="fill:#594c42;fill-opacity:1"
   id="path1" />
    </g>
    <g
   transform="matrix(1,0,0,1,-85.01,183.79)"
   id="g2">
        <path
   d="M546.93,375.53C518.208,404.76 482.83,419.372 440.8,419.372C393.63,419.372 356.21,403.232 328.53,370.932C302.38,340.17 289.31,300.96 289.31,253.292C289.31,202.032 311.612,143.572 356.21,77.952C392.59,24.138 435.4,-23.028 484.62,-63.528C477.438,-30.714 473.862,-7.398 473.862,6.444C473.862,38.238 483.846,69.246 503.838,99.494C528.45,135.374 547.148,162.054 559.978,179.462C579.97,209.722 589.966,239.192 589.966,267.882C589.967,310.44 575.62,346.322 546.926,375.532M546.152,211.362C538.466,194.192 529.49,182.79 519.236,177.142C520.772,180.226 521.546,184.582 521.546,190.222C521.546,200.992 518.474,216.362 512.312,236.352L502.328,267.114C502.328,285.054 511.28,294.03 529.232,294.03C548.192,294.03 557.684,281.46 557.684,256.344C557.684,243.54 553.844,228.552 546.152,211.356"
   style="fill:#03547a;fill-rule:nonzero;fill-opacity:1"
   id="path2" />
    </g>
</svg>
